X: 165
T: A Dram At The Wake
R: polka
M: 2/4
K: Dmajor
|:F>E DE|FA d2|AF DF|E2 D>E|
F>E DE|FA d>B|AF ED|D2 D2:|
|:f>e dB|Ad F2|AF dF|E2 E>g|
f>e dB|AF d>E|Fd Ed|D2 D2:|

